icons/EmojiNeutral_filled.svg

<svg width="24" height="24" viewBox="0 0 24 24" fill="none" xmlns="http://www.w3.org/2000/svg">
<path fill-rule="evenodd" clip-rule="evenodd" d="M2.25,12c0,-5.38478 4.36522,-9.75 9.75,-9.75c5.3848,0 9.75,4.36522 9.75,9.75c0,5.3848 -4.3652,9.75 -9.75,9.75c-5.38478,0 -9.75,-4.3652 -9.75,-9.75zM8.25,9c-0.69036,0 -1.25,0.55964 -1.25,1.25c0,0.6904 0.55964,1.25 1.25,1.25c0.69036,0 1.25,-0.5596 1.25,-1.25c0,-0.69036 -0.55964,-1.25 -1.25,-1.25zM15.75,11.5c0.6904,0 1.25,-0.5596 1.25,-1.25c0,-0.69036 -0.5596,-1.25 -1.25,-1.25c-0.6904,0 -1.25,0.55964 -1.25,1.25c0,0.6904 0.5596,1.25 1.25,1.25zM9,14.75c-0.41421,0 -0.75,0.3358 -0.75,0.75c0,0.4142 0.33579,0.75 0.75,0.75h6c0.4142,0 0.75,-0.3358 0.75,-0.75c0,-0.4142 -0.3358,-0.75 -0.75,-0.75z" fill="#002B51"/>
</svg>

<svg width="24" height="24" viewBox="0 0 24 24" fill="none" xmlns="http://www.w3.org/2000/svg">
<path fill-rule="evenodd" clip-rule="evenodd" d="M2.25 12C2.25 6.61522 6.61522 2.25 12 2.25C17.3848 2.25 21.75 6.61522 21.75 12C21.75 17.3848 17.3848 21.75 12 21.75C6.61522 21.75 2.25 17.3848 2.25 12ZM9.5 10.25C9.5 10.9404 8.94036 11.5 8.25 11.5C7.55964 11.5 7 10.9404 7 10.25C7 9.55964 7.55964 9 8.25 9C8.94036 9 9.5 9.55964 9.5 10.25ZM15.75 11.5C16.4404 11.5 17 10.9404 17 10.25C17 9.55964 16.4404 9 15.75 9C15.0596 9 14.5 9.55964 14.5 10.25C14.5 10.9404 15.0596 11.5 15.75 11.5ZM9 14.75C8.58579 14.75 8.25 15.0858 8.25 15.5C8.25 15.9142 8.58579 16.25 9 16.25H15C15.4142 16.25 15.75 15.9142 15.75 15.5C15.75 15.0858 15.4142 14.75 15 14.75H9Z" fill="#002B51"/>
</svg>
